images/controller-icons/sc2-1.svg

<svg xmlns="http://www.w3.org/2000/svg" width="24" height="24" viewBox="0 0 24 24"><g fill-rule="evenodd"><path fill="#00135f" stroke="#7792ff" stroke-width=".45" d="M5 3.6c2-.9 4-.9 5.6-.2l-.4 1.1c-1.5-.6-3.4-.6-4.8.1Zm14 0c-2-.9-4-.9-5.6-.2l.4 1.1c1.5-.6 3.4-.6 4.8.1Z"/><path fill="#00135f" stroke="#7792ff" stroke-width=".8" d="M6 4h12c2.5 0 4 2 4.3 4.5.5 3.5.9 6.5.1 9.5-.5 2-1.4 3-2.9 3-1 0-1.7-1-2.5-2.5-.7-1.5-1.5-2-2.5-2h-5c-1 0-1.8.5-2.5 2C6.2 20 5.5 21 4.5 21c-1.5 0-2.4-1-2.9-3-.8-3-.4-6 .1-9.5C2 6 3.5 4 6 4Z"/><path fill="#7792ff" d="M6.5 5.6h1v1h1v1h-1v1h-1v-1h-1v-1h1Z"/><circle cx="17" cy="5.8" r=".62" fill="#7792ff"/><circle cx="15.9" cy="6.9" r=".62" fill="#7792ff"/><circle cx="18.1" cy="6.9" r=".62" fill="#7792ff"/><circle cx="17" cy="8" r=".62" fill="#7792ff"/><circle cx="11.3" cy="5.9" r=".4" fill="#7792ff"/><circle cx="12.7" cy="5.9" r=".4" fill="#7792ff"/><circle cx="7" cy="11.1" r="1.85" fill="#000828" stroke="#7792ff" stroke-width=".55"/><circle cx="7" cy="11.1" r=".75" fill="#7792ff"/><circle cx="17" cy="11.1" r="1.85" fill="#000828" stroke="#7792ff" stroke-width=".55"/><circle cx="17" cy="11.1" r=".75" fill="#7792ff"/><rect width="3.2" height="2.9" x="5.4" y="13.5" fill="#000828" stroke="#7792ff" stroke-width=".5" rx=".8"/><rect width="3.2" height="2.9" x="15.4" y="13.5" fill="#000828" stroke="#7792ff" stroke-width=".5" rx=".8"/></g></svg>

<?xml version="1.0" encoding="UTF-8" standalone="no"?>
<svg xmlns="http://www.w3.org/2000/svg" width="24" height="24" viewBox="0 0 24 24" version="1.1">
  <!-- Steam Controller v2 (sc2) icon, color variant 1: d-pad/stick/pad | ABXY/stick/pad -->
  <g fill-rule="evenodd">
    <path d="M5,3.6 C7,2.7 9,2.7 10.6,3.4 L10.2,4.5 C8.7,3.9 6.8,3.9 5.4,4.6 Z" fill="#00135f" stroke="#7792ff" stroke-width="0.45"/>
    <path d="M19,3.6 C17,2.7 15,2.7 13.4,3.4 L13.8,4.5 C15.3,3.9 17.2,3.9 18.6,4.6 Z" fill="#00135f" stroke="#7792ff" stroke-width="0.45"/>
    <path d="M6,4 H18 C20.5,4 22,6 22.3,8.5 C22.8,12 23.2,15 22.4,18 C21.9,20 21,21 19.5,21 C18.5,21 17.8,20 17,18.5 C16.3,17 15.5,16.5 14.5,16.5 H9.5 C8.5,16.5 7.7,17 7,18.5 C6.2,20 5.5,21 4.5,21 C3,21 2.1,20 1.6,18 C0.8,15 1.2,12 1.7,8.5 C2,6 3.5,4 6,4 Z" fill="#00135f" stroke="#7792ff" stroke-width="0.8"/>
    <path d="M6.5,5.6 H7.5 V6.6 H8.5 V7.6 H7.5 V8.6 H6.5 V7.6 H5.5 V6.6 H6.5 Z" fill="#7792ff"/>
    <circle cx="17" cy="5.8" r="0.62" fill="#7792ff"/>
    <circle cx="15.9" cy="6.9" r="0.62" fill="#7792ff"/>
    <circle cx="18.1" cy="6.9" r="0.62" fill="#7792ff"/>
    <circle cx="17" cy="8.0" r="0.62" fill="#7792ff"/>
    <circle cx="11.3" cy="5.9" r="0.4" fill="#7792ff"/>
    <circle cx="12.7" cy="5.9" r="0.4" fill="#7792ff"/>
    <circle cx="7" cy="11.1" r="1.85" fill="#000828" stroke="#7792ff" stroke-width="0.55"/>
    <circle cx="7" cy="11.1" r="0.75" fill="#7792ff"/>
    <circle cx="17" cy="11.1" r="1.85" fill="#000828" stroke="#7792ff" stroke-width="0.55"/>
    <circle cx="17" cy="11.1" r="0.75" fill="#7792ff"/>
    <rect x="5.4" y="13.5" width="3.2" height="2.9" rx="0.8" fill="#000828" stroke="#7792ff" stroke-width="0.5"/>
    <rect x="15.4" y="13.5" width="3.2" height="2.9" rx="0.8" fill="#000828" stroke="#7792ff" stroke-width="0.5"/>
  </g>
</svg>
